melody-of-light/img/icons/icomoon/cart2.svg

<svg width="20" height="20" viewBox="0 0 20 20" fill="none" xmlns="http://www.w3.org/2000/svg">
<path fill-rule="evenodd" clip-rule="evenodd" d="M5 16C4.44772 16 4 16.4477 4 17C4 17.5523 4.44772 18 5 18C5.55228 18 6 17.5523 6 17C6 16.4477 5.55228 16 5 16ZM2 17C2 15.3431 3.34315 14 5 14C6.65686 14 8 15.3431 8 17C8 18.6569 6.65686 20 5 20C3.34315 20 2 18.6569 2 17Z" fill="#93939F"/>
<path fill-rule="evenodd" clip-rule="evenodd" d="M16 16C15.4477 16 15 16.4477 15 17C15 17.5523 15.4477 18 16 18C16.5523 18 17 17.5523 17 17C17 16.4477 16.5523 16 16 16ZM13 17C13 15.3431 14.3431 14 16 14C17.6569 14 19 15.3431 19 17C19 18.6569 17.6569 20 16 20C14.3431 20 13 18.6569 13 17Z" fill="#93939F"/>
<path fill-rule="evenodd" clip-rule="evenodd" d="M0 1C0 0.447715 0.447715 0 1 0H3C3.49765 0 3.91957 0.36593 3.98995 0.858579L5.86729 14H16C16.5523 14 17 14.4477 17 15C17 15.5523 16.5523 16 16 16H5C4.50235 16 4.08043 15.6341 4.01005 15.1414L2.1327 2H1C0.447715 2 0 1.55228 0 1Z" fill="#93939F"/>
<path fill-rule="evenodd" clip-rule="evenodd" d="M2.50211 2.93565C2.53767 2.38451 3.01328 1.96655 3.56442 2.00211L19.0644 3.00211C19.3425 3.02005 19.6005 3.15322 19.7762 3.36951C19.9519 3.5858 20.0294 3.86559 19.99 4.14146L18.99 11.1415C18.9196 11.6341 18.4977 12 18 12H5.00004C4.44775 12 4.00004 11.5523 4.00004 11C4.00004 10.4478 4.44775 10 5.00004 10H17.1327L17.8573 4.92839L3.43565 3.99796C2.88451 3.9624 2.46655 3.48679 2.50211 2.93565Z" fill="#93939F"/>
</svg>

<svg width="20" height="20" fill="none" xmlns="http://www.w3.org/2000/svg"><path fill-rule="evenodd" clip-rule="evenodd" d="M5 16a1 1 0 100 2 1 1 0 000-2zm-3 1a3 3 0 116 0 3 3 0 01-6 0zm14-1a1 1 0 100 2 1 1 0 000-2zm-3 1a3 3 0 116 0 3 3 0 01-6 0z" fill="#93939F"/><path fill-rule="evenodd" clip-rule="evenodd" d="M0 1a1 1 0 011-1h2a1 1 0 01.99.859L5.867 14H16a1 1 0 110 2H5a1 1 0 01-.99-.859L2.133 2H1a1 1 0 01-1-1z" fill="#93939F"/><path fill-rule="evenodd" clip-rule="evenodd" d="M2.502 2.936a1 1 0 011.062-.934l15.5 1a1 1 0 01.926 1.14l-1 7A1 1 0 0118 12H5a1 1 0 110-2h12.133l.724-5.072-14.421-.93a1 1 0 01-.934-1.062z" fill="#93939F"/></svg>
